client/filepreviewer/pdfjs/web/images/cursor-editorFreeText.svg

<svg width="16" height="16" viewBox="0 0 16 16" fill="none" xmlns="http://www.w3.org/2000/svg">
<path d="M12 2.75H12.5V2.25V1V0.5H12H10.358C9.91165 0.5 9.47731 0.625661 9.09989 0.860442L9.09886 0.861087L8 1.54837L6.89997 0.860979L6.89911 0.860443C6.5218 0.625734 6.08748 0.5 5.642 0.5H4H3.5V1V2.25V2.75H4H5.642C5.66478 2.75 5.6885 2.75641 5.71008 2.76968C5.71023 2.76977 5.71038 2.76986 5.71053 2.76995L6.817 3.461C6.81704 3.46103 6.81709 3.46105 6.81713 3.46108C6.81713 3.46108 6.81713 3.46108 6.81714 3.46109C6.8552 3.48494 6.876 3.52285 6.876 3.567V8V12.433C6.876 12.4771 6.85523 12.515 6.81722 12.5389C6.81715 12.5389 6.81707 12.539 6.817 12.539L5.70953 13.23C5.70941 13.2301 5.70929 13.2302 5.70917 13.2303C5.68723 13.2438 5.6644 13.25 5.641 13.25H4H3.5V13.75V15V15.5H4H5.642C6.08835 15.5 6.52269 15.3743 6.90011 15.1396L6.90086 15.1391L8 14.4526L9.10003 15.14L9.10089 15.1406C9.47831 15.3753 9.91265 15.501 10.359 15.501H12H12.5V15.001V13.751V13.251H12H10.358C10.3352 13.251 10.3115 13.2446 10.2899 13.2313C10.2897 13.2312 10.2896 13.2311 10.2895 13.231L9.183 12.54C9.18298 12.54 9.18295 12.54 9.18293 12.54C9.18291 12.5399 9.18288 12.5399 9.18286 12.5399C9.14615 12.5169 9.125 12.4797 9.125 12.434V8V3.567C9.125 3.52266 9.14603 3.48441 9.18364 3.4606C9.18377 3.46052 9.1839 3.46043 9.18404 3.46035L10.2895 2.76995C10.2896 2.76985 10.2898 2.76975 10.2899 2.76966C10.3119 2.75619 10.3346 2.75 10.358 2.75H12Z" fill="black" stroke="white"/>
</svg>

<svg xmlns="http://www.w3.org/2000/svg" width="16" height="16" fill="none"><path fill="#000" stroke="#fff" d="M12 2.75h.5V.5h-2.142c-.446 0-.88.126-1.258.36l-.001.001L8 1.548 6.9.861A2.378 2.378 0 0 0 5.641.5H3.5v2.25h2.142a.13.13 0 0 1 .068.02l1.107.691a.122.122 0 0 1 .059.106v8.866c0 .044-.02.082-.059.106l-1.107.691a.128.128 0 0 1-.069.02H3.5v2.25h2.142c.446 0 .88-.126 1.258-.36l1.1-.687 1.1.687c.378.235.813.361 1.259.361H12.5v-2.25h-2.142a.13.13 0 0 1-.068-.02l-1.107-.691a.12.12 0 0 1-.058-.106V3.567c0-.044.021-.083.059-.106l1.106-.691a.128.128 0 0 1 .068-.02H12Z"/></svg>
